X:1
T:Title
%%score 1 { ( 2 4 5 ) | ( 3 6 ) }
L:1/8
M:4/4
K:Bb
V:1 treble nm="Choir Aahs"
V:2 treble nm="Grand Piano"
V:4 treble 
V:5 treble 
V:3 treble 
V:6 treble 
V:1
 z8[Q:1/4=100] | z8 | z8 | z8 |[M:11/16] z11/2 |[M:3/8] FG>D |[M:4/4] F3 D F>G A>B | %7
 c>B A>B E2 F2 | G3 A d>c B>G | A2 G>F F2 B2 | d3 A B>B d>d | e>e c>_d =d2 B2 | c2 G2 A>_A =A>_A | %13
[M:5/8] A-A- A3 |[M:3/8] z3 |[M:4/4] z8 | z8 | z8 | z8 | z8 | z8 | z8 | z8 | z8 | z8 | z8 | z8 | %27
 z8 | z8 | z8 |[M:5/8] z5 |] %31
V:2
 z4 z f g>d | z2 z g [Ff]>[Gg] [Aa]>[Bb] | [cc']>[Bb] [Aa]>[Bb] z2 z f | %3
 z2 z [_A_a] [=A=a]>[Bb] [=B=b]>[cc'] |[M:11/16] [ff']-<[ff'][_A=Bdf]-<[ABdf][=Acef]3/2 | %5
[M:3/8] FG>D |[M:4/4] z2[K:bass] z D[K:treble] [DF]>[DG] [DA]>[DB] | %7
 [Dc]>[DB] [DA]>[DB] [A,E]2 [A,EF]2 | [A,EG]3 A d>c B>G | A2 G>F [DF]2 [DGB]2 | %10
 z2 z A [DB]>[DB] [DBd]>[DBd] | [EBe]>[EBe] [Ec]>[=E_d] [FB=d]2 [DGB]2 | %12
 [C=Ec]2 [CG]2 [C_EA]>[CE_A] [CE=A]>[CE_A] |[M:5/8] [CEA]-[CEA]- [CEA]3 |[M:3/8] FB>G | %15
[M:4/4] D2 [B,DF]2 [B,DG]2 [F,B,D]2 | [B,DG]4- [B,DG]>F B>G | D2 [DF]2 [DG]2 D2 | G4- G>G A>c | %19
 G2 G2 z z/ G/ A>c | [DG]2 [DF]2 z z/ F/ =E>F | [B,=EG]2 [A,EA]2 [EB]2 [EG]2 | c4- c>F B>G | %23
 D2 [B,DF]2 [B,DG]2 [F,B,D]2 | [B,DG]2 [B,DG]2- [B,DG]F G>A | B2 G2 [GB]2 [Gc]2 | %26
 [^Fd]2 [Fd]2- [Fd][Fd] [Fe]>[Fd] | d2 G2 z z/ =B/ [=Ec]>[Ed] | c2 F2 z z/ F/ G>F | B4 z4 | %30
[M:5/8] [DFB]-[DFB]- [DFB]3 |] %31
V:3
 z4 z F G>D | z2 [F,B,]2 z4 | z4 z2 [F,A,]2 | F,,2 F,2 [A,,A,]>[B,,B,] [=B,,=B,]>[C,C] | %4
[M:11/16] [F,F]-<[F,F][F,_A,=B,DF]-<[F,A,B,DF][F,=A,CEF]3/2 |[M:3/8] z3 | %6
[M:4/4] [B,,,B,,]2 F,,2 [B,,,B,,]2 [F,,F,]2 | [B,,,B,,]2 [F,,F,]2 [C,,C,]2 [F,,F,]2 | %8
 [C,,C,]2 z [A,E] [A,,A,]2 [C,,C,]2 | [F,,F,]2 [G,,G,]>[A,,A,] [B,,B,]2 [G,,G,]2 | %10
 [D,,D,]2 z D [G,,G,]2 [_A,,_A,]2 | [A,,G,]2 [^F,,^F,]2 [=F,,=F,]2 [^F,,^F,]2 | %12
 [C,,C,]2 [=E,,=E,]2 [F,,F,]>[G,,G,] [F,,F,]>[G,,G,] |[M:5/8] [F,,F,]-[F,,F,]- [F,,F,]3 | %14
[M:3/8] F,B,>G, |[M:4/4] D,2 B,,2 B,,2 B,,2 | B,,4- B,,>F, B,>G, | %17
 D,2 [B,,B,]2 [B,,B,]2 [B,,F,B,]2 | [F,A,E]4- [F,A,E]>[F,A,E] [F,CE]>[F,A,E] | %19
 [F,A,E]2 [F,A,E]2 z z/ [F,A,E]/ [F,CE]>[F,A,E] | [B,,B,]2 [B,,B,]2 z z/ F,/ =E,>F, | %21
 C,2 C,2 [C,G,]2 [C,B,]2 | [F,A,E]4- [F,A,E]>F, B,>G, | D,2 B,,2 B,,2 B,,2 | %24
 B,,2 B,,2- B,,F, G,>A, | B,2 [G,B,D]2 [E,B,]2 [E,G,]2 | %26
 [D,A,]2 [D,A,]2- [D,A,][D,A,] [D,A,]>[D,A,] | %27
 [G,=B,F]2 [G,B,F]2 z z/ [G,F]/[K:bass] [C,_B,]>[C,B,] | [F,A,E]2 [F,A,E]2 z z/ F,/ G,>F, | %29
 [^F,=E]4 [=F,DF]>[F,_EF] [F,EF]>[F,EF] |[M:5/8] B,,-B,,- B,,3 |] %31
V:4
 x8 | [Ff]4 z4 | z4 [Ee]4 | [Gg]4 z4 |[M:11/16] x11/2 |[M:3/8] x3 | %6
[M:4/4] [DF]4[K:bass][K:treble] z4 | x8 | z4 E2 E2 | E4 z4 | [D^Fd]4 z4 | x8 | x8 |[M:5/8] x5 | %14
[M:3/8] x3 |[M:4/4] x8 | x8 | x8 | x8 | x8 | x8 | x8 | x8 | x8 | x8 | x8 | x8 | x8 | x8 | %29
 z2 _D2 B>A A>A |[M:5/8] x5 |] %31
V:5
 x8 | z2 D2 z4 | z4 z2 C2 | z2 [A,CE]2 z4 |[M:11/16] x11/2 |[M:3/8] x3 | %6
[M:4/4] z2[K:bass] F,2[K:treble] z4 | x8 | x8 | x8 | z2 ^F,2 z4 | x8 | x8 |[M:5/8] x5 |[M:3/8] x3 | %15
[M:4/4] x8 | x8 | x8 | x8 | x8 | x8 | x8 | x8 | x8 | x8 | x8 | x8 | x8 | x8 | x8 |[M:5/8] x5 |] %31
V:6
 x8 | [B,,,B,,]2 z G F,,2 [F,B,D]2 | [B,,,B,,]2 [F,B,D]2 [C,,C,]2 z F | x8 |[M:11/16] x11/2 | %5
[M:3/8] x3 |[M:4/4] x8 | x8 | z2 [F,,F,]2 z4 | x8 | z2 ^F,,2 z4 | x8 | x8 |[M:5/8] x5 |[M:3/8] x3 | %15
[M:4/4] x8 | x8 | x8 | x8 | x8 | x8 | x8 | x8 | x8 | x8 | x8 | x8 | x6[K:bass] x2 | x8 | %29
 B,2 z2 z4 |[M:5/8] x5 |] %31

